X:17
T:Ain't Misbehavin'
C:Fats Waller, Harry Brooks
N:Tabledited By Kim Davis And Mike Stangeland
L:1/8
Q:1/4=141
M:4/4
K:D
z8 |: "D"zD E"F#m7"D AA z2 | "Em7"zE FE "A7"B4 | "D"zA BA "F#7 (#5b9)"dd zc | 
"G"ed BF "C7"F=F E2 | "D"zD ED "F7"AA z2 | "Em7"zE FE "A7"BB zA |1 "F#7"F8 | "E7"z8 :|2 "D"D8 |] 
"D"z8 | "Bm"z2 dB dB z2 | "Bm#5"z2 dB dB z2 | "Bm6"z2 dB dB z2 | "B7"z2 ^dB =dB z2 | 
"Amaj7"z2 e2 "F#7"e2 e2 | "Bm7"e2 d2 "E7"c2 B2 | "A7"A4 "B7#5"B4 | "E7b5"F4 "A7"E4 | 
"D""D"zD E"F#m7"D AA z2 | "Em7"zE FE "A7"B4 | "D"zA BA "F#7 (#5b9)"dd zc | "G"ed BF "C7"F=F E2 | 
"D"zD ED "F7"AA z2 | "Em7"zE FE "A7"BB zA | "D"d8 | z8 | z8 | 


